X:1
T:E minor Samuel Babcock, 1795
T:Isaac Watts, 1719 (Hymn 28, Book 2)          86. 86. (C. M.)
T:Dissolution
T:Transcribed from The Middlesex Harmony, 1795.
%%score [ 1 2 3 ]
L:1/8
Q:1/4=140
M:6/4
K:G
V:1 treble nm="Treble" snm="Tr."
V:2 treble-8 nm="Tenor" snm="T."
V:3 bass nm="Bass" snm="B."
V:1
 G6 B4 B2 | B4 G2 A4 A2 | B6- B4 B2 | G4 A2 B4 d2 | d6- d4 B2 | G4 G2 B4 B2 | d4 d2 d4 d2 | %7
w: 1.~Stoop down, my|thoughts, that used to|rise,~ _ Con-|verse a- while with|death;~ _ Think|how a gas- ping|mor- tal lies, And|
 B4 B2 B4 ^d2 | e6- e4 ^d2 | (e2 d2) c2 B4 B2 | B6- B6 |[M:2/4][Q:1/4=120] z2 B2 |: dc BA | %13
w: pants a- way his|breath, * And|pants * a- way its|breath. *|His|quive- * * ring|
 B2 G>A | B3 B | !fermata!G2 z F | G2 GB | dc BA | B4- | B2 z G | B2 B2 | G2 G2 | F2 G2 | %23
w: lip hangs *|fee- bly|down, His|pul- ses *|faint * and *|few;|* Then,|speech- less,|with a|dole- ful|
 !fermata!A2 z B | G2 cA | B2 GA | B4- | B2 z B | G2 cA | BG F2 |1 E4- ||1 E2 B2 :|2 E4- || E4 |] %34
w: groan, He|bids the *|world a- *|dieu,|* He|bids the *|world * a-|dieu.|* His|||
V:2
 B6 G4 F2 | E4 B>c d4 d2 | d6- d4 d2 | B4 A2 G4 A2 | B6- B4 GA | B4 B2 e4 g2 | f4 f2 f4 f2 | %7
w: 2.~But O! the|soul that * ne- ver|dies! * At|once it leaves the|clay! * Ye *|thoughts, pur- sue it|where it flies, And|
 (g2 f2) e2 ^d4 d2 | B6- B4 GA | B4 e2 e4 ^d2 | e6- e6 |[M:2/4] z2 B2 |: BA GA | B2 B>c | d3 d | %15
w: track * its won- drous|way, * And *|track its won- drous|way. *|Up|to * * the|courts where *|an- gels|
 !fermata!B2 z B | B2 eg | fe dc | B4- | B2 z B | d2 d2 | B2 BG | A2 B2 | !fermata!A2 z B | B2 e2 | %25
w: dwell, It|mounts tri- *|um- * phant *|there;|* Or|de- vils|plunge it *|down to|hell, In|in- fi-|
 d2 c2 | B4- | B2 z G/A/ | B2 e2 | e2 ^d2 |1 e4- ||1 e2 B2 :|2 e4- || e4 |] %34
w: nite des-|pair,|* In *|in- fi-|nite des-|pair.|* Up|||
V:3
 E,6 E,4 B,,2 | E,4 G,2 D,4 D,2 | G,6- G,4 B,2 | G,4 F,2 E,4 F,2 | B,,6- B,,4 E,2 | %5
w: 3.~~And must my|bo- dy faint and|die? * And|must this soul re-|move? * O|
 E,4 E,2 E,4 E,2 | B,4 B,2 B,4 B,2 | E,4 E,2 B,,4 B,,2 | E,6- E,4 B,2 | G,4 A,2 B,4 B,,2 | %10
w: for some guar- dian|an- gel nigh, To|bear it safe a-|bove! * To|bear it safe a-|
 E,6- E,6 |[M:2/4] z2 G,2 |: B,A, G,F, | E,2 E,2 | B,,3 B,, | !fermata!E,2 z B,, | E,2 E,2 | %17
w: bove! *|Je-|sus, * * to|thy dear|faith- ful|hand My|na- ked|
 F,2 F,2 | B,4- | B,2 z G, | G,2 G,2 | G,2 G,2 | D,2 G,2 | !fermata!D,2 z D, | E,F, G,A, | %25
w: soul I|trust,|* And|my flesh|waits for|thy com-|mand To|drop * in- *|
 B,2 CA, | B,4- | B,2 z E, | E,F, G,A, | B,2 B,,2 |1 E,4- ||1 E,2 G,2 :|2 E,4- || E,4 |] %34
w: to my *|dust,|* To|drop * in- *|to my|dust.|* Je–|||

